X: 1
T: Singin' in the Rain
%D: 1929
C: words: Arthur Freed
C: music: Nacio Herb Brown
O: for the 1929 musical of the same name
R: air
Z: 2022 John Chambers <jc:trillian.mit.edu>
M: C
L: 1/8
K: C
"G7"G2 |\
"C"g4- g>ed>c | "Am"A6 G2 | "C"c4- c>cd>e | g6 G>A |\
"C6"c4- c>de2 | g4 e2"E#dim7"g2 | "G7/D"g4- g>ed2 | A6 G2 |
"C"g4- g>ed2 | "Am"A6 G2 | "G"g4 e3d | "Am"A6 G2 |\
"C"g4- g>eA2 | "G7"B4- B>eA2 |1 "C"c4- cAc2 | A6 :|[2 "C"c8- | c6 |]


